X:420
T:Speed the Pretzel
C:John Bone
L:1/8
M:4/4
O:England
Z:Carol Turner
%%Copyright:John Bone
%%TUNEURL: http://www.leeds.ac.uk/music/Info/RRTuneBk/gettune/00000c75.html
%%ID:00000c75
K:F
z2|\
AB^cd efec |efe^c eae^c | d2 e(^c c)ABA | B2 BA GA B2| \
AB^cd efec | efe^c eae^c |
d2 e(^c c)ABA | GedB A2 ::\
^ce| \
ae^c(a a)e^ce | aAgA fAeA |
d2 e(^c c)ABA | GAB^c def^g | \
ae^c(a a)e^ce | aAgA fAeA | d2 e(^c c)ABA | GedB A2:|
